images/facebook-1.svg

<svg xmlns="http://www.w3.org/2000/svg" width="200" height="200" viewBox="-49 51 200 200" enable-background="new -49 51 200 200"><style type="text/css">.st0{fill:#0B8599;}</style><path class="st0" d="M51 51c-55.2 0-100 44.8-100 100s44.8 100 100 100 100-44.8 100-100-44.8-100-100-100zm28 66h-11.3s-8 3.5-8 9.6v12.4h19l-3.4 18h-15.6c0 23 .1 50 .1 50h-19.8v-50h-16v-18h16v-18.8c0-18 21.2-20.2 21.2-20.2h17.8v17z"/></svg>

<?xml version="1.0" encoding="utf-8"?>
<!-- Generator: Adobe Illustrator 19.1.0, SVG Export Plug-In . SVG Version: 6.00 Build 0)  -->
<svg version="1.1" id="Layer_1" xmlns="http://www.w3.org/2000/svg" xmlns:xlink="http://www.w3.org/1999/xlink" x="0px" y="0px"
	 width="200px" height="200px" viewBox="-49 51 200 200" style="enable-background:new -49 51 200 200;" xml:space="preserve">
<style type="text/css">
	.st0{fill:#0B8599;}
</style>
<path class="st0" d="M51,51C-4.2,51-49,95.8-49,151S-4.2,251,51,251s100-44.8,100-100S106.2,51,51,51z M79,117c0,0-7.4,0-11.3,0
	s-8,3.5-8,9.6c0,1.3,0,5.4,0,12.4h19l-3.4,18H59.7c0,23,0.1,50,0.1,50H40c0,0,0-26,0-50H24v-18h16c0-8,0-14.8,0-18.8
	c0-18,21.2-20.2,21.2-20.2H79V117z"/>
</svg>
